X:1
T:Title
%%score { ( 1 3 ) | 2 }
L:1/8
M:4/4
K:Db
V:1 treble nm="Grand Piano"
V:3 treble 
V:2 bass 
V:1
 z4 z2[Q:1/4=100] [FA]2 | [FA]3 [DF] [DF]2 [Fd]2 | [FA]3 F F2 D2 | E2 F2 A2 [A,CG]2 | %4
 [A,DF]4 [CE]2 [CGA]2 | [DFA]3 [A,DF] [A,DF]2 [Fd]2 | [FA]3 [DF] [DF]2 [Fd]2 | %7
 [Ec]2 [CAc]2 [E=Gc]3 [DGB] |[M:3/4] [CA]6 |[M:1/4] z2 |[M:4/4] A6 z2 | A6 z2 | %12
 [GB]3 [GB] [=GB]2 [Gd]2 | c6 A2 | [Af]3 [Ae] [Ad]2 [Ad]2 | e3 d B2 d2 | F3 F [CG]2 [CE]2 | %17
[M:3/4] D6 |] %18
V:2
 z4 z2 [D,D]2 | [D,D]3 [D,A,] [D,A,]2 [D,A,]2 | [D,D]3 [D,A,D] [D,A,D]2 [F,A,]2 | %3
 [G,A,C]2 [F,A,D]2 [E,B,D]2 A,,2 | D,2 F,2 A,2 A,2 | D,3 D, D,2 [D,A,]2 | %6
 [D,D]3 [D,A,] [D,A,]2 [D,A,]2 | [E,A,]2 E,2 E,3 E, |[M:3/4] A,6 |[M:1/4] A2 | %10
[M:4/4] A,,2 A,,A,, A,,2[K:treble] B2 | [D,D]2 [D,D][D,D] [D,D]2 [D,D]2 | %12
 [G,D]3 [G,D] [E,E]2 [E,E]2 | [A,EA]6 A,2 | [D,D]3 [E,C] [F,D]2 [F,_C]2 | %15
 [G,B,G]3 [G,B,G] [G,DG]2 [G,B,G]2 | [A,D]3 [A,D] [A,,E,]2 [A,,G,]2 |[M:3/4] [D,F,]6 |] %18
V:3
 x8 | x8 | x8 | x8 | x8 | x8 | x8 | x8 |[M:3/4] x6 |[M:1/4] x2 |[M:4/4] [CG]2 [CG][CG] [CG]2 z2 | %11
 F2 FF F2 [FA]2 | x8 | x8 | x8 | x8 | x8 |[M:3/4] x6 |] %18

